assets/logos/colored/menshi_icon_colored_dark.svg

<svg width="250" height="187" viewBox="0 0 250 187" fill="none" xmlns="http://www.w3.org/2000/svg">
<path d="M5 42.7355C5 21.8948 21.6316 5 42.1478 5H82.7782V144.15C82.7782 164.991 66.1466 181.885 45.6304 181.885H42.1478C21.6316 181.885 5 164.991 5 144.15V42.7355Z" fill="#622EDC"/>
<path d="M85.7783 61.6033C85.7783 44.0207 85.7783 35.2295 88.606 28.2948C92.3762 19.0485 99.608 11.7024 108.71 7.87245C115.537 5 124.191 5 141.5 5H163.557V142.381C163.557 144.023 163.557 144.844 163.531 145.539C162.815 165.289 147.219 181.132 127.776 181.86C127.093 181.885 126.284 181.885 124.667 181.885C123.051 181.885 122.242 181.885 121.559 181.86C102.116 181.132 86.5196 165.289 85.8034 145.539C85.7783 144.844 85.7783 144.023 85.7783 142.381V61.6033Z" fill="#F58B00"/>
<path d="M166.556 61.6033C166.556 44.0207 166.556 35.2295 169.384 28.2948C173.154 19.0485 180.386 11.7024 189.488 7.87245C196.315 5 204.97 5 222.278 5H244.335V111.721C244.335 113.363 244.335 114.184 244.31 114.879C243.593 134.629 227.997 150.472 208.554 151.2C207.871 151.225 207.062 151.225 205.446 151.225C203.829 151.225 203.02 151.225 202.337 151.2C182.894 150.472 167.298 134.629 166.582 114.879C166.556 114.184 166.556 113.363 166.556 111.721V61.6033Z" fill="#DCE0E5"/>
</svg>

<svg width="250" height="187" fill="none" xmlns="http://www.w3.org/2000/svg">
    <path d="M5 42.736C5 21.895 21.632 5 42.148 5h40.63v139.15c0 20.841-16.631 37.735-37.148 37.735h-3.482C21.632 181.885 5 164.991 5 144.15V42.735Z" fill="#622EDC"/>
    <path d="M85.778 61.603c0-17.582 0-26.373 2.828-33.308 3.77-9.247 11.002-16.593 20.104-20.423C115.537 5 124.191 5 141.5 5h22.057v137.381c0 1.642 0 2.463-.026 3.158-.716 19.75-16.312 35.593-35.755 36.321-.683.025-1.492.025-3.109.025-1.616 0-2.425 0-3.108-.025-19.443-.728-35.04-16.571-35.756-36.321-.025-.695-.025-1.516-.025-3.158V61.603Z" fill="#F58B00"/>
    <path d="M166.556 61.603c0-17.582 0-26.373 2.828-33.308 3.77-9.247 11.002-16.593 20.104-20.423C196.315 5 204.97 5 222.278 5h22.057v106.721c0 1.642 0 2.463-.025 3.158-.717 19.75-16.313 35.593-35.756 36.321-.683.025-1.492.025-3.108.025-1.617 0-2.426 0-3.109-.025-19.443-.728-35.039-16.571-35.755-36.321-.026-.695-.026-1.516-.026-3.158V61.603Z" fill="#DCE0E5"/>
</svg>
